packages/icons/src/lib/svgs/windows.svg

<svg
        aria-hidden="true"
        data-testid="test-icon"
        fill="none"
        
        viewBox="0 0 24 24"
        
        xmlns="http://www.w3.org/2000/svg"
        
    >
        <title>windows icon</title>
        <path
            d="M4 4V11.6786H11.6786V4H4ZM12.3214 4V11.6786H20V4H12.3214ZM4 12.3214V20H11.6786V12.3214H4ZM12.3214 12.3214V20H20V12.3214H12.3214Z"
            fill="currentColor"
        />
    </svg>

<svg aria-hidden="true" data-testid="test-icon" fill="currentColor" viewBox="0 0 24 24" xmlns="http://www.w3.org/2000/svg"><path d="M4 4v7.679h7.679V4H4zm8.321 0v7.679H20V4h-7.679zM4 12.321V20h7.679v-7.679H4zm8.321 0V20H20v-7.679h-7.679z"/></svg>
